src/assets/duotone/Building.svg

<svg width="24" height="24" viewBox="0 0 24 24"  xmlns="http://www.w3.org/2000/svg">
<path opacity="0.4" d="M12.5002 7.41035V22.0003H4.08021C2.92021 22.0003 1.97021 21.0703 1.97021 19.9303V5.09035C1.97021 2.47035 3.93022 1.28035 6.32022 2.45035L10.7502 4.64035C11.7102 5.11035 12.5002 6.36035 12.5002 7.41035Z" />
<path d="M8.97 9.75H5.5C5.09 9.75 4.75 9.41 4.75 9C4.75 8.59 5.09 8.25 5.5 8.25H8.97C9.38 8.25 9.72 8.59 9.72 9C9.72 9.41 9.39 9.75 8.97 9.75Z" />
<path d="M8.97 13.75H5.5C5.09 13.75 4.75 13.41 4.75 13C4.75 12.59 5.09 12.25 5.5 12.25H8.97C9.38 12.25 9.72 12.59 9.72 13C9.72 13.41 9.39 13.75 8.97 13.75Z" />
<path opacity="0.6" d="M22 15.0499V19.4999C22 20.8799 20.88 21.9999 19.5 21.9999H12.5V10.4199L12.97 10.5199L17.01 11.4199L17.49 11.5299L19.53 11.9899C20.02 12.0899 20.47 12.2599 20.86 12.5099C20.86 12.5199 20.87 12.5199 20.87 12.5199C20.97 12.5899 21.07 12.6699 21.16 12.7599C21.62 13.2199 21.92 13.8899 21.99 14.8699C21.99 14.9299 22 14.9899 22 15.0499Z" />
<path d="M12.5 10.4199V16.4199C12.96 17.0299 13.68 17.4199 14.5 17.4199C15.89 17.4199 17.01 16.2999 17.01 14.9199V11.4299L12.97 10.5299L12.5 10.4199Z" />
<path d="M21.9898 14.8699C21.9198 13.8899 21.6198 13.2199 21.1598 12.7599C21.0698 12.6699 20.9698 12.5899 20.8698 12.5199C20.8698 12.5199 20.8598 12.5199 20.8598 12.5099C20.4698 12.2599 20.0198 12.0899 19.5298 11.9899L17.4898 11.5299L17.0098 11.4199V14.9199C17.0098 16.2899 18.1198 17.4199 19.5098 17.4199C20.8498 17.4199 21.9198 16.3699 21.9998 15.0599V15.0499C21.9998 14.9899 21.9898 14.9299 21.9898 14.8699Z" />
</svg>

<?xml version="1.0" encoding="UTF-8"?>
<svg width="24" height="24" viewBox="0 0 24 24" xmlns="http://www.w3.org/2000/svg">
 <path d="m12.5 7.4104v14.59h-8.42c-1.16 0-2.11-0.93-2.11-2.07v-14.84c0-2.62 1.96-3.81 4.35-2.64l4.43 2.19c0.96 0.47 1.75 1.72 1.75 2.77z" opacity=".4"/>
 <path d="m8.97 9.75h-3.47c-0.41 0-0.75-0.34-0.75-0.75s0.34-0.75 0.75-0.75h3.47c0.41 0 0.75 0.34 0.75 0.75s-0.33 0.75-0.75 0.75z"/>
 <path d="m8.97 13.75h-3.47c-0.41 0-0.75-0.34-0.75-0.75s0.34-0.75 0.75-0.75h3.47c0.41 0 0.75 0.34 0.75 0.75s-0.33 0.75-0.75 0.75z"/>
 <path d="m22 15.05v4.45c0 1.38-1.12 2.5-2.5 2.5h-7v-11.58l0.47 0.1 4.04 0.9 0.48 0.11 2.04 0.46c0.49 0.1 0.94 0.27 1.33 0.52 0 0.01 0.01 0.01 0.01 0.01 0.1 0.07 0.2 0.15 0.29 0.24 0.46 0.46 0.76 1.13 0.83 2.11 0 0.06 0.01 0.12 0.01 0.18z" opacity=".6"/>
 <path d="m12.5 10.42v6c0.46 0.61 1.18 1 2 1 1.39 0 2.51-1.12 2.51-2.5v-3.49l-4.04-0.9-0.47-0.11z"/>
 <path d="m21.99 14.87c-0.07-0.98-0.37-1.65-0.83-2.11-0.09-0.09-0.19-0.17-0.29-0.24 0 0-0.01 0-0.01-0.01-0.39-0.25-0.84-0.42-1.33-0.52l-2.04-0.46-0.48-0.11v3.5c0 1.37 1.11 2.5 2.5 2.5 1.34 0 2.41-1.05 2.49-2.36v-0.01c0-0.06-0.01-0.12-0.01-0.18z"/>
</svg>
